X:1
T:Houghton-le-Spring, 77.77.77
T:Houghton-le-Spring, 77.77.77
T:Samuel Sebastian Wesley, 1860
T:Public Domain Courtesy of the Cyber Hymnal™
C:Samuel Sebastian Wesley, 1860
Z:Public Domain
Z:Courtesy of the Cyber Hymnal™
%%score ( 1 2 ) ( 3 4 )
L:1/8
Q:1/4=115
M:4/4
K:Eb
V:1 treble 
V:2 treble 
V:3 bass 
V:4 bass 
V:1
 [EG]2 [EG]2 [EA]2 (GF) | [B,E]2 [B,D]2 [B,E]4 | [B,G]2 [Cc]2 [_DB]2 (AF) | [B,E]2 [B,D]2 [B,E]4 | %4
 [B,G]2 [Cc]2 [Fc]2 [FB]2 | [Gc]2 [Fd]2 [Ee]4 | [Ed]2 [Ec]2 [EB]2 (GF) | E2 [EA]2 ([EG]2 [DF]2) | %8
 [DB]2 [DG]2 [CF]2 [C=E]2 | [CF]2 [B,G]2 [A,A]4 | [CG]2 (AB) [Ec]2 [EA]2 | [EG]2 [DF]2 E4 |] %12
V:2
 x6 C2 | x8 | x6 C2 | x8 | x8 | x8 | x6 D2 | E2 x6 | x8 | x8 | x2 E2 x4 | x4 E4 |] %12
V:3
 [E,B,]2 [E,B,]2 [A,,C]2 (B,A,) | [B,,G,]2 [B,,F,]2 [E,G,]4 | [E,G,]2 [E,G,]2 [A,,G,]2 [A,,A,]2 | %3
 [B,,G,]2 [B,,F,]2 [E,G,]4 | [E,G,]2 [E,G,]2 [D,F,]2 [D,B,]2 | (G,=A,) [D,=B,]2 [C,C]4 | %6
 [B,,G,]2 [A,,A,]2 [G,,B,]2 (B,A,) | [C,G,]2 [A,,C]2 [B,,B,]4 | [G,,B,]2 [B,,B,]2 [C,A,]2 [C,G,]2 | %9
 [D,C]2 [=E,C]2 [F,C]4 | [C,E]2 [B,,_D]2 [A,,C]2 [A,,C]2 | [B,,B,]2 (B,A,) [E,G,]4 |] %12
V:4
 x6 A,,2 | x8 | x8 | x8 | x8 | E,2 x6 | x6 B,,2 | x8 | x8 | x8 | x8 | x2 B,,2 x4 |] %12

